X:513
T:Ma\`iri Bh\`oidheach
R:Strathspey
C:James Stewart-Robertson
B:The Athole Collection
M:C
L:1/8
K:F
B|A/B/c c>A B<G G>B|A>F A/B/c ~f2 f>g|a/g/f/e/ f>F A<G G>A|
F<C D>E ~F2F:|
e|~f>cf>g a/g/f/e/ d>e|~f>cf>a g2 g>a|~f>cf>g a/g/f/e/ d>e|
~f>d c<A F2 F>e|~f>cf>g a/g/f/e/ d>e|f>cf>a g2 f>g|a/g/f/e/ f>F A<G G>A|
F>CD>E F2F||

